X:20
M:2/4
L:1/8
K:D
|:d2 fd|gdbd|c2 ec|fcac|B2 dB|eBgB|Ac/d/ ec|Ae "tr"e2|

